src/assets/background/invite-title2.svg

<svg width="265" height="23" viewBox="0 0 265 23" fill="none" xmlns="http://www.w3.org/2000/svg">
<path d="M195.226 8.26611L201.685 14.7253H226.529L229.826 11.4287H241.171L244.005 14.2623H264.247" stroke="url(#paint0_linear_5132_108752)" stroke-miterlimit="10"/>
<path d="M200.614 7.25122H198.505L203.933 12.7901H206.047L200.614 7.25122Z" fill="url(#paint1_linear_5132_108752)"/>
<path d="M203.955 7.25122H201.847L207.274 12.7901H209.388L203.955 7.25122Z" fill="url(#paint2_linear_5132_108752)"/>
<path d="M207.296 7.25122H205.188L210.615 12.7901H212.724L207.296 7.25122Z" fill="url(#paint3_linear_5132_108752)"/>
<path d="M210.638 7.25122H208.529L213.957 12.7901H216.065L210.638 7.25122Z" fill="url(#paint4_linear_5132_108752)"/>
<path d="M213.979 7.25122H211.865L217.298 12.7901H219.406L213.979 7.25122Z" fill="url(#paint5_linear_5132_108752)"/>
<path d="M228.57 15.0934L230.751 12.9626H240.462L242.839 15.0544L228.57 15.0934Z" fill="url(#paint6_linear_5132_108752)"/>
<path d="M69.0208 8.26611L62.5561 14.7253H37.7121L34.4156 11.4287H23.0757L20.2422 14.2623H0" stroke="url(#paint7_linear_5132_108752)" stroke-miterlimit="10"/>
<path d="M63.627 7.25122H65.741L60.3082 12.7901H58.1997L63.627 7.25122Z" fill="url(#paint8_linear_5132_108752)"/>
<path d="M60.2922 7.25122H62.4007L56.9678 12.7901H54.8594L60.2922 7.25122Z" fill="url(#paint9_linear_5132_108752)"/>
<path d="M56.9509 7.25122H59.0594L53.6265 12.7901H51.5181L56.9509 7.25122Z" fill="url(#paint10_linear_5132_108752)"/>
<path d="M53.6096 7.25122H55.7181L50.2852 12.7901H48.1768L53.6096 7.25122Z" fill="url(#paint11_linear_5132_108752)"/>
<path d="M50.2683 7.25122H52.3768L46.9495 12.7901H44.8354L50.2683 7.25122Z" fill="url(#paint12_linear_5132_108752)"/>
<path d="M35.6767 15.0934L33.4957 12.9626H23.7791L21.4084 15.0544L35.6767 15.0934Z" fill="url(#paint13_linear_5132_108752)"/>
<g clip-path="url(#clip0_5132_108752)">
<path d="M78.4085 3.97704L78.8436 0.953819L78.0906 0.0613568H84.1426L83.5848 3.96588H84.6L84.2262 6.72136H83.1887L82.7258 10.0681L83.529 9.82266L83.066 13.03L82.2963 13.2754L81.3369 20.1306C81.249 20.7049 80.9532 21.227 80.5058 21.5976C80.0769 21.9635 79.53 22.1617 78.9663 22.1554H74.186L76.2499 19.3664L76.869 14.9041L75.112 15.4619L75.5749 12.2714L77.2985 11.747L78.0069 6.72694H76.3726L76.7463 3.98261L78.4085 3.97704ZM91.2376 2.56025H93.9206L94.0433 1.7905L92.872 0.619146H99.1304L98.8515 2.56025H102.633L102.232 5.48864H98.4499L98.0817 7.95407H101.133L100.731 10.8825H97.6801L97.3399 13.3479H100.402L99.9726 16.2763H96.9104L96.5701 18.7473H100.363L99.9615 21.6422H88.5547L88.4933 22.1386H83.6684L86.0446 5.18186L85.0573 5.48864L85.5538 1.97457L91.6058 0L91.2376 2.56025ZM88.9563 18.7361H91.6671L92.0353 16.2763H89.291L88.9563 18.7361ZM89.726 13.3367H92.409L92.7493 10.8713H90.0663L89.726 13.3367ZM90.4679 7.94291H93.1788L93.519 5.47749H90.836L90.4679 7.94291Z" fill="url(#paint14_linear_5132_108752)"/>
<path d="M106.839 3.34673L105.879 2.23116H116.734L116.89 1.14905L115.903 0H123.483L123.149 2.23116H130.701L130.299 5.15955H111.736L108.072 22.1665H102.795L106.839 3.34673Z" fill="url(#paint15_linear_5132_108752)"/>
<path d="M131.287 21.09L133.691 7.49111H135.509L133.133 21.09H131.287ZM136.006 6.69347H133.535L133.97 3.76508H136.435L136.837 0.89804L136.218 0H140.875L140.351 3.7595H142.794L142.353 6.69347H139.916L137.729 22.2H133.825L136.006 6.69347ZM138.996 19.3385L140.195 7.49668H142.013L140.842 19.3385H138.996ZM152.31 19.9242L152.712 16.9958H147.965L145.734 22.2056H141.444L144.992 14.034H141.969L142.37 11.1335H147.859L148.104 9.49915H152.979L152.712 11.1558H158.2L157.799 14.0563H149.259L148.98 14.6698H157.213L156.382 20.5322C156.364 20.7308 156.305 20.9234 156.209 21.0982C156.113 21.2729 155.982 21.4258 155.824 21.5474C155.522 21.8054 155.139 21.9477 154.742 21.949H150.425L152.31 19.9242ZM150.185 6.44804H152.276L153.202 4.69101H157.029L156.131 6.44804H158.97L158.412 10.5199H154.508L154.697 9.10312H146.548L146.364 10.5199H142.571L143.129 6.44804H146.336L145.934 4.69101H149.789L150.185 6.44804ZM149.32 1.67337L149.382 1.21598L148.372 0.0334673H154.05L153.822 1.67337H158.725L158.412 4.07186H144.356L144.668 1.67337H149.32Z" fill="url(#paint16_linear_5132_108752)"/>
<path d="M184.745 0L183.301 2.58814H186.965L185.487 13.1861H176.39L176.178 14.6308H186.168L185.744 17.5759H175.776L175.146 22.2H169.289L169.936 17.5759H160.007L160.409 14.642H170.332L170.55 13.1973H161.502L162.98 2.5993H167.236L166.779 0.987286L165.97 0H172.413L173.127 2.58814H177.41L178.398 0.864573L177.689 0H184.745ZM167.141 10.5422H170.907L171.091 9.22025H167.337L167.141 10.5422ZM167.699 6.59864H171.459L171.643 5.24322H167.894L167.699 6.59864ZM180.618 10.5422L180.802 9.22025H176.947L176.763 10.5422H180.618ZM177.5 5.24322L177.316 6.59864H181.17L181.354 5.24322H177.5Z" fill="url(#paint17_linear_5132_108752)"/>
</g>
<defs>
<linearGradient id="paint0_linear_5132_108752" x1="195.031" y1="11.5347" x2="264.247" y2="11.5347" gradientUnits="userSpaceOnUse">
<stop stop-color="#3FD3ED"/>
<stop offset="1" stop-color="#6E40DE"/>
</linearGradient>
<linearGradient id="paint1_linear_5132_108752" x1="197.552" y1="8.82977" x2="219.462" y2="14.3463" gradientUnits="userSpaceOnUse">
<stop stop-color="#3FD3ED"/>
<stop offset="1" stop-color="#6E40DE"/>
</linearGradient>
<linearGradient id="paint2_linear_5132_108752" x1="197.747" y1="8.03771" x2="219.662" y2="13.5598" gradientUnits="userSpaceOnUse">
<stop stop-color="#3FD3ED"/>
<stop offset="1" stop-color="#6E40DE"/>
</linearGradient>
<linearGradient id="paint3_linear_5132_108752" x1="197.948" y1="7.24564" x2="219.863" y2="12.7677" gradientUnits="userSpaceOnUse">
<stop stop-color="#3FD3ED"/>
<stop offset="1" stop-color="#6E40DE"/>
</linearGradient>
<linearGradient id="paint4_linear_5132_108752" x1="198.149" y1="6.45358" x2="220.059" y2="11.9757" gradientUnits="userSpaceOnUse">
<stop stop-color="#3FD3ED"/>
<stop offset="1" stop-color="#6E40DE"/>
</linearGradient>
<linearGradient id="paint5_linear_5132_108752" x1="198.35" y1="5.66151" x2="220.26" y2="11.1836" gradientUnits="userSpaceOnUse">
<stop stop-color="#3FD3ED"/>
<stop offset="1" stop-color="#6E40DE"/>
</linearGradient>
<linearGradient id="paint6_linear_5132_108752" x1="228.57" y1="14.028" x2="242.839" y2="14.028" gradientUnits="userSpaceOnUse">
<stop stop-color="#3FD3ED"/>
<stop offset="1" stop-color="#6E40DE"/>
</linearGradient>
<linearGradient id="paint7_linear_5132_108752" x1="69.216" y1="11.5347" x2="0" y2="11.5347" gradientUnits="userSpaceOnUse">
<stop stop-color="#3FD3ED"/>
<stop offset="1" stop-color="#6E40DE"/>
</linearGradient>
<linearGradient id="paint8_linear_5132_108752" x1="66.6948" y1="8.82977" x2="44.7793" y2="14.3463" gradientUnits="userSpaceOnUse">
<stop stop-color="#3FD3ED"/>
<stop offset="1" stop-color="#6E40DE"/>
</linearGradient>
<linearGradient id="paint9_linear_5132_108752" x1="66.4949" y1="8.03771" x2="44.5849" y2="13.5598" gradientUnits="userSpaceOnUse">
<stop stop-color="#3FD3ED"/>
<stop offset="1" stop-color="#6E40DE"/>
</linearGradient>
<linearGradient id="paint10_linear_5132_108752" x1="66.2939" y1="7.24564" x2="44.3839" y2="12.7677" gradientUnits="userSpaceOnUse">
<stop stop-color="#3FD3ED"/>
<stop offset="1" stop-color="#6E40DE"/>
</linearGradient>
<linearGradient id="paint11_linear_5132_108752" x1="66.093" y1="6.45358" x2="44.183" y2="11.9757" gradientUnits="userSpaceOnUse">
<stop stop-color="#3FD3ED"/>
<stop offset="1" stop-color="#6E40DE"/>
</linearGradient>
<linearGradient id="paint12_linear_5132_108752" x1="65.8976" y1="5.66151" x2="43.982" y2="11.1836" gradientUnits="userSpaceOnUse">
<stop stop-color="#3FD3ED"/>
<stop offset="1" stop-color="#6E40DE"/>
</linearGradient>
<linearGradient id="paint13_linear_5132_108752" x1="35.6767" y1="14.028" x2="21.4084" y2="14.028" gradientUnits="userSpaceOnUse">
<stop stop-color="#3FD3ED"/>
<stop offset="1" stop-color="#6E40DE"/>
</linearGradient>
<linearGradient id="paint14_linear_5132_108752" x1="65.4901" y1="5.95719" x2="192.376" y2="38.5488" gradientUnits="userSpaceOnUse">
<stop stop-color="white"/>
<stop offset="0.49" stop-color="#3FD3ED"/>
<stop offset="0.96" stop-color="#6755E0"/>
</linearGradient>
<linearGradient id="paint15_linear_5132_108752" x1="67.2024" y1="-0.71397" x2="194.088" y2="31.8776" gradientUnits="userSpaceOnUse">
<stop stop-color="white"/>
<stop offset="0.49" stop-color="#3FD3ED"/>
<stop offset="0.96" stop-color="#6755E0"/>
</linearGradient>
<linearGradient id="paint16_linear_5132_108752" x1="69.1046" y1="-8.11025" x2="195.985" y2="24.4814" gradientUnits="userSpaceOnUse">
<stop stop-color="white"/>
<stop offset="0.49" stop-color="#3FD3ED"/>
<stop offset="0.96" stop-color="#6755E0"/>
</linearGradient>
<linearGradient id="paint17_linear_5132_108752" x1="71.1515" y1="-16.0922" x2="198.037" y2="16.4994" gradientUnits="userSpaceOnUse">
<stop stop-color="white"/>
<stop offset="0.49" stop-color="#3FD3ED"/>
<stop offset="0.96" stop-color="#6755E0"/>
</linearGradient>
<clipPath id="clip0_5132_108752">
<rect width="112.779" height="22.2" fill="white" transform="translate(74.186)"/>
</clipPath>
</defs>
</svg>

<svg width="265" height="23" fill="none" xmlns="http://www.w3.org/2000/svg"><path d="m195.226 8.266 6.459 6.46h24.844l3.297-3.297h11.345l2.834 2.833h20.242" stroke="url(#prefix__a)" stroke-miterlimit="10"/><path d="M200.614 7.251h-2.109l5.428 5.54h2.114z" fill="url(#prefix__b)"/><path d="M203.955 7.251h-2.108l5.427 5.54h2.114z" fill="url(#prefix__c)"/><path d="M207.296 7.251h-2.108l5.427 5.54h2.109z" fill="url(#prefix__d)"/><path d="M210.638 7.251h-2.109l5.428 5.54h2.108z" fill="url(#prefix__e)"/><path d="M213.979 7.251h-2.114l5.433 5.54h2.108z" fill="url(#prefix__f)"/><path d="m228.57 15.093 2.181-2.13h9.711l2.377 2.091z" fill="url(#prefix__g)"/><path d="m69.02 8.266-6.464 6.46H37.712l-3.296-3.297h-11.34l-2.834 2.833H0" stroke="url(#prefix__h)" stroke-miterlimit="10"/><path d="M63.627 7.251h2.114l-5.433 5.54H58.2z" fill="url(#prefix__i)"/><path d="M60.292 7.251h2.109l-5.433 5.54h-2.109z" fill="url(#prefix__j)"/><path d="M56.95 7.251h2.11l-5.434 5.54h-2.108z" fill="url(#prefix__k)"/><path d="M53.61 7.251h2.108l-5.433 5.54h-2.108z" fill="url(#prefix__l)"/><path d="M50.268 7.251h2.109l-5.428 5.54h-2.114z" fill="url(#prefix__m)"/><path d="m35.677 15.093-2.181-2.13h-9.717l-2.37 2.091z" fill="url(#prefix__n)"/><g clip-path="url(#prefix__o)"><path d="m78.409 3.977.435-3.023L78.09.06h6.052l-.558 3.905H84.6l-.374 2.755H83.19l-.463 3.347.803-.245-.463 3.207-.77.245-.96 6.856a2.37 2.37 0 0 1-.83 1.467 2.33 2.33 0 0 1-1.54.557h-4.78l2.064-2.789.619-4.462-1.757.558.463-3.19 1.724-.525.708-5.02h-1.634l.373-2.744zM91.238 2.56h2.683l.122-.77L92.872.62h6.258l-.278 1.94h3.781l-.401 2.929H98.45l-.368 2.465h3.051l-.402 2.929h-3.05l-.341 2.465h3.062l-.43 2.928H96.91l-.34 2.471h3.793l-.401 2.895H88.555l-.062.497h-4.825l2.377-16.957-.988.307.497-3.514L91.606 0zm-2.282 16.176h2.711l.368-2.46h-2.744zm.77-5.4h2.683l.34-2.465h-2.683zm.742-5.393h2.71l.341-2.466h-2.683z" fill="url(#prefix__p)"/><path d="m106.839 3.347-.96-1.116h10.855l.156-1.082L115.903 0h7.58l-.334 2.231h7.552l-.402 2.929h-18.563l-3.664 17.007h-5.277z" fill="url(#prefix__q)"/><path d="m131.287 21.09 2.404-13.599h1.818l-2.376 13.599zm4.719-14.397h-2.471l.435-2.928h2.465l.402-2.867-.619-.898h4.657l-.524 3.76h2.443l-.441 2.933h-2.437L137.729 22.2h-3.904zm2.99 12.646 1.199-11.842h1.818l-1.171 11.842zm13.314.585.402-2.928h-4.747l-2.231 5.21h-4.29l3.548-8.172h-3.023l.401-2.9h5.489l.245-1.635h4.875l-.267 1.657h5.488l-.401 2.9h-8.54l-.279.614h8.233l-.831 5.862a1.45 1.45 0 0 1-.558 1.015c-.302.258-.685.4-1.082.402h-4.317zm-2.125-13.476h2.091l.926-1.757h3.827l-.898 1.757h2.839l-.558 4.072h-3.904l.189-1.417h-8.149l-.184 1.417h-3.793l.558-4.072h3.207l-.402-1.757h3.855zm-.865-4.775.062-.457-1.01-1.183h5.678l-.228 1.64h4.903l-.313 2.399h-14.056l.312-2.399z" fill="url(#prefix__r)"/><path d="m184.745 0-1.444 2.588h3.664l-1.478 10.598h-9.097l-.212 1.445h9.99l-.424 2.945h-9.968l-.63 4.624h-5.857l.647-4.624h-9.929l.402-2.934h9.923l.218-1.445h-9.048L162.98 2.6h4.256l-.457-1.612L165.97 0h6.443l.714 2.588h4.283l.988-1.723-.709-.865zm-17.604 10.542h3.766l.184-1.322h-3.754zm.558-3.943h3.76l.184-1.356h-3.749zm12.919 3.943.184-1.322h-3.855l-.184 1.322zM177.5 5.243l-.184 1.356h3.854l.184-1.356z" fill="url(#prefix__s)"/></g><defs><linearGradient id="prefix__a" x1="195.031" y1="11.535" x2="264.247" y2="11.535" gradientUnits="userSpaceOnUse"><stop stop-color="#3FD3ED"/><stop offset="1" stop-color="#6E40DE"/></linearGradient><linearGradient id="prefix__b" x1="197.552" y1="8.83" x2="219.462" y2="14.346" gradientUnits="userSpaceOnUse"><stop stop-color="#3FD3ED"/><stop offset="1" stop-color="#6E40DE"/></linearGradient><linearGradient id="prefix__c" x1="197.747" y1="8.038" x2="219.662" y2="13.56" gradientUnits="userSpaceOnUse"><stop stop-color="#3FD3ED"/><stop offset="1" stop-color="#6E40DE"/></linearGradient><linearGradient id="prefix__d" x1="197.948" y1="7.246" x2="219.863" y2="12.768" gradientUnits="userSpaceOnUse"><stop stop-color="#3FD3ED"/><stop offset="1" stop-color="#6E40DE"/></linearGradient><linearGradient id="prefix__e" x1="198.149" y1="6.454" x2="220.059" y2="11.976" gradientUnits="userSpaceOnUse"><stop stop-color="#3FD3ED"/><stop offset="1" stop-color="#6E40DE"/></linearGradient><linearGradient id="prefix__f" x1="198.35" y1="5.662" x2="220.26" y2="11.184" gradientUnits="userSpaceOnUse"><stop stop-color="#3FD3ED"/><stop offset="1" stop-color="#6E40DE"/></linearGradient><linearGradient id="prefix__g" x1="228.57" y1="14.028" x2="242.839" y2="14.028" gradientUnits="userSpaceOnUse"><stop stop-color="#3FD3ED"/><stop offset="1" stop-color="#6E40DE"/></linearGradient><linearGradient id="prefix__h" x1="69.216" y1="11.535" x2="0" y2="11.535" gradientUnits="userSpaceOnUse"><stop stop-color="#3FD3ED"/><stop offset="1" stop-color="#6E40DE"/></linearGradient><linearGradient id="prefix__i" x1="66.695" y1="8.83" x2="44.779" y2="14.346" gradientUnits="userSpaceOnUse"><stop stop-color="#3FD3ED"/><stop offset="1" stop-color="#6E40DE"/></linearGradient><linearGradient id="prefix__j" x1="66.495" y1="8.038" x2="44.585" y2="13.56" gradientUnits="userSpaceOnUse"><stop stop-color="#3FD3ED"/><stop offset="1" stop-color="#6E40DE"/></linearGradient><linearGradient id="prefix__k" x1="66.294" y1="7.246" x2="44.384" y2="12.768" gradientUnits="userSpaceOnUse"><stop stop-color="#3FD3ED"/><stop offset="1" stop-color="#6E40DE"/></linearGradient><linearGradient id="prefix__l" x1="66.093" y1="6.454" x2="44.183" y2="11.976" gradientUnits="userSpaceOnUse"><stop stop-color="#3FD3ED"/><stop offset="1" stop-color="#6E40DE"/></linearGradient><linearGradient id="prefix__m" x1="65.898" y1="5.662" x2="43.982" y2="11.184" gradientUnits="userSpaceOnUse"><stop stop-color="#3FD3ED"/><stop offset="1" stop-color="#6E40DE"/></linearGradient><linearGradient id="prefix__n" x1="35.677" y1="14.028" x2="21.408" y2="14.028" gradientUnits="userSpaceOnUse"><stop stop-color="#3FD3ED"/><stop offset="1" stop-color="#6E40DE"/></linearGradient><linearGradient id="prefix__p" x1="65.49" y1="5.957" x2="192.376" y2="38.549" gradientUnits="userSpaceOnUse"><stop stop-color="#fff"/><stop offset=".49" stop-color="#3FD3ED"/><stop offset=".96" stop-color="#6755E0"/></linearGradient><linearGradient id="prefix__q" x1="67.202" y1="-.714" x2="194.088" y2="31.878" gradientUnits="userSpaceOnUse"><stop stop-color="#fff"/><stop offset=".49" stop-color="#3FD3ED"/><stop offset=".96" stop-color="#6755E0"/></linearGradient><linearGradient id="prefix__r" x1="69.105" y1="-8.11" x2="195.985" y2="24.481" gradientUnits="userSpaceOnUse"><stop stop-color="#fff"/><stop offset=".49" stop-color="#3FD3ED"/><stop offset=".96" stop-color="#6755E0"/></linearGradient><linearGradient id="prefix__s" x1="71.151" y1="-16.092" x2="198.037" y2="16.499" gradientUnits="userSpaceOnUse"><stop stop-color="#fff"/><stop offset=".49" stop-color="#3FD3ED"/><stop offset=".96" stop-color="#6755E0"/></linearGradient><clipPath id="prefix__o"><path fill="#fff" d="M74.186 0h112.779v22.2H74.186z"/></clipPath></defs></svg>
